X: 192	% 51
T: Old German Polka
S: Viola Ruth "Pioneer Western Folk Tunes" 1948 p.19 #2
R: polka
Z: 2019 John Chambers <jc:trillian.mit.edu>
M: 4/4
L: 1/8
K: D
V: 1 name="51"
|:\
d2d2 c2c2 | B>c (3(dcB) A3F |\
G>BA>G F>AG>F | E>GF>E D4 :|
|:\
FAD2 FAD2 | G>Bd>B B>AA2 |\
FAD2 FAD2 | CEGE EDD2 :|
